apps/nextjs/public/t3-icon.svg

<svg width="258" height="198" viewBox="0 0 258 198" fill="none" xmlns="http://www.w3.org/2000/svg">
<g clip-path="url(#clip0_1_12)">
<path d="M165.269 24.0976L188.481 -0.000411987H0V24.0976H165.269Z" fill="black"/>
<path d="M163.515 95.3516L253.556 2.71059H220.74L145.151 79.7886L163.515 95.3516Z" fill="black"/>
<path d="M233.192 130.446C233.192 154.103 214.014 173.282 190.357 173.282C171.249 173.282 155.047 160.766 149.534 143.467L146.159 132.876L126.863 152.171L128.626 156.364C138.749 180.449 162.568 197.382 190.357 197.382C227.325 197.382 257.293 167.414 257.293 130.446C257.293 105.965 243.933 84.7676 224.49 73.1186L219.929 70.3856L202.261 88.2806L210.322 92.5356C223.937 99.7236 233.192 114.009 233.192 130.446Z" fill="black"/>
<path d="M87.797 191.697V44.6736H63.699V191.697H87.797Z" fill="black"/>
</g>
<defs>
<clipPath id="clip0_1_12">
<rect width="258" height="198" fill="white"/>
</clipPath>
</defs>
</svg>

<svg xmlns="http://www.w3.org/2000/svg" width="258" height="198" fill="none"><g fill="#000" clip-path="url(#a)"><path d="M165.269 24.098 188.481 0H0v24.098h165.269ZM163.515 95.352 253.556 2.71H220.74l-75.589 77.078 18.364 15.563ZM233.192 130.446c0 23.657-19.178 42.836-42.835 42.836-19.108 0-35.31-12.516-40.823-29.815l-3.375-10.591-19.296 19.295 1.763 4.193c10.123 24.085 33.942 41.018 61.731 41.018 36.968 0 66.936-29.968 66.936-66.936 0-24.481-13.36-45.678-32.803-57.327l-4.561-2.733-17.668 17.895 8.061 4.255c13.615 7.188 22.87 21.473 22.87 37.91ZM87.797 191.697V44.674H63.699v147.023h24.098Z"/></g><defs><clipPath id="a"><path fill="#fff" d="M0 0h258v198H0z"/></clipPath></defs></svg>
